!!!!SEGMENT: Ver2014-Si_bona_suscepimus.krn
!!!id: Ver2014
!!!AGN: Motet
!!!SCT: Slim (1972)
!!!voices: 5
!!!COM: Philippe Verdelot
!!!OTL: Si bona suscepimus
**kern	**kern	**kern	**kern	**kern
*part5	*part4	*part3	*part2	*part1
*staff5	*staff4	*staff3	*staff2	*staff1
*I"Bassus	*I"Tenor II	*I"Tenor I	*I"Altus	*I"Superius
*I'B	*I'T. II	*I'T. I	*I'A	*I'S
*clefF4	*clefGv2	*clefGv2	*clefGv2	*clefG2
*k[b-]	*k[b-]	*k[b-]	*k[b-]	*k[b-]
*F:	*F:	*F:	*F:	*F:
*M2/1	*M2/1	*M2/1	*M2/1	*M2/1
*met(C|)	*met(C|)	*met(C|)	*met(C|)	*met(C|)
!!section: Prima pars: Si bona suscepimus
!!!OMD: Prima pars: Si bona suscepimus
=1	=1	=1	=1	=1
0D	0r	0r	1r	0r
.	.	.	[1A	.
=2	=2	=2	=2	=2
1F	0r	0r	1A]	0r
2E	.	.	1c	.
2C	.	.	.	.
=3	=3	=3	=3	=3
2D	0r	0r	2B-y	0r
2E	.	.	2G	.
1F	.	.	2.A	.
.	.	.	4B-y	.
=4	=4	=4	=4	=4
2r	0r	0A	0c	0r
1F	.	.	.	.
4E	.	.	.	.
4D	.	.	.	.
=5	=5	=5	=5	=5
2C	0r	1c	2r	0r
2AA	.	.	2C	.
2BB-y	.	2B-y	2D	.
2C	.	2G	2E	.
=6	=6	=6	=6	=6
0FF	1r	2.A	2.F	0r
.	.	4B-y	8EL	.
.	.	.	8DJ	.
.	[1A	[1c	2C	.
.	.	.	[2F	.
=7	=7	=7	=7	=7
1FF	1A]	2c]	2F]	0r
.	.	2F	4E	.
.	.	.	4D	.
1r	1c	2G	1C	.
.	.	2A	.	.
=8	=8	=8	=8	=8
0r	2B-y	1B-y	2.G	0d
.	2G	.	.	.
.	.	.	4F	.
.	2.A	2r	1D	.
.	.	2F	.	.
.	4B-y	.	.	.
=9	=9	=9	=9	=9
1F	0c	1A	0r	1f
2C	.	2G	.	2e
[2F	.	[2A	.	2c
=10	=10	=10	=10	=10
2F]	0r	4A]	1r	2d
.	.	4B-y	.	.
2E	.	1c	.	2e
1D	.	.	2r	1f
.	.	2Bni	2F	.
=11	=11	=11	=11	=11
1C	1r	0c	2A	1r
.	.	.	2G	.
1FF	2r	.	2.A	1f
.	2F	.	.	.
.	.	.	4B-y	.
=12	=12	=12	=12	=12
0r	2F	0r	1c	1a
.	2F	.	.	.
.	2E	.	2r	2g
.	[2F	.	2c	[2a
=13	=13	=13	=13	=13
0r	4F]	1r	1c	4a]
.	4G	.	.	4b-y
.	2A	.	.	1cc
.	1G	2r	1d	.
.	.	2G	.	2bni
=14	=14	=14	=14	=14
1r	1C	1G	0c	0cc
1C	2r	1A	.	.
.	[2c	.	.	.
=15	=15	=15	=15	=15
1C	4c]	2G	0r	0r
.	4B-y	.	.	.
.	4A	1c	.	.
.	4G	.	.	.
1D	1F	.	.	.
.	.	2B-y	.	.
=16	=16	=16	=16	=16
1C	1G	1c	1c	1r
1r	2.A	2.F	1c	1f
.	4G	4E	.	.
=17	=17	=17	=17	=17
1r	2A	2D	1d	1f
.	2B-y	2BB-y	.	.
1C	2.G	1E-X	1c	1g
.	4A	.	.	.
=18	=18	=18	=18	=18
1D	2B-y	2D	0r	1f
.	2A	2F	.	.
2BB-y	2B-y	2D	.	2r
2D	[2A	2F	.	2f
=19	=19	=19	=19	=19
2C	4A]	2E	1r	1g
.	4G	.	.	.
2BB-y	1G	1D	.	.
1AA	.	.	1c	1a
.	2F#i	2C	.	.
=20	=20	=20	=20	=20
0GG	0G	0D	2B-y	1.b-y
.	.	.	2G	.
.	.	.	[1d	.
.	.	.	.	4a
.	.	.	.	4g
=21	=21	=21	=21	=21
0r	1F	1D	1d]	2a
.	.	.	.	4f
.	.	.	.	4g
.	2F	[1F	1c	4a
.	.	.	.	4b-y
.	[2A	.	.	[2cc
=22	=22	=22	=22	=22
0r	4A]	2F]	2.c	4cc]
.	4B-y	.	.	4b-y
.	4c	2F	.	1a
.	4A	.	4d	.
.	1B-y	1G	2e	.
.	.	.	[2d	2g
=23	=23	=23	=23	=23
1r	1A	1D	2d]	[0a
.	.	.	4c	.
.	.	.	4B-y	.
[1D	1r	2r	1A	.
.	.	[2F	.	.
=24	=24	=24	=24	=24
2D]	1.d	2F]	2r	0a]
2D	.	2F	2A	.
1D	.	1F	2A	.
.	2d	.	2A	.
=25	=25	=25	=25	=25
1GG	0d	1G	1B-y	1r
[1D	.	1F	[1A	[1f
=26	=26	=26	=26	=26
1D]	1d	2D	1A]	2f]
.	.	1F	.	2f
2r	2.c	.	1r	1f
2F	.	4E	.	.
.	4d	4D	.	.
=27	=27	=27	=27	=27
2E	1e	1C	1c	1g
2C	.	.	.	.
2.D	1d	1r	2A	1f
.	.	.	2F	.
4E	.	.	.	.
=28	=28	=28	=28	=28
1F	1c	1r	2.A	2r
.	.	.	.	2f
.	.	.	4B-y	.
1r	1r	2r	1c	2e
.	.	2A	.	2c
=29	=29	=29	=29	=29
0D	0r	2A	2.F	4d
.	.	.	.	4c
.	.	2A	.	4d
.	.	.	4G	4e
.	.	2.F	2A	1f
.	.	.	2B-y	.
.	.	4G	.	.
=30	=30	=30	=30	=30
2C	0r	2A	2c	2e
2BB-y	.	2B-y	1d	2d
2E-i	.	2.G	.	[1g
2E-i	.	.	2c	.
.	.	4A	.	.
=31	=31	=31	=31	=31
[0D	0r	1B-y	[0d	2g]
.	.	.	.	4f
.	.	.	.	4e
.	.	1A	.	1f
=32	=32	=32	=32	=32
0D]	2r	2r	0d]	2r
.	2A	2F	.	2f
.	2A	2F	.	2f
.	2A	2A	.	2f
=33	=33	=33	=33	=33
0r	2B-y	2G	0r	2g
.	2c	2F	.	1a
.	2.B-y	2.G	.	.
.	.	.	.	2g
.	8AL	8FL	.	.
.	8GJ	8EJ	.	.
=34	=34	=34	=34	=34
0r	2A	2D	0r	2f
.	1d	2D	.	4e
.	.	.	.	4d
.	.	1A	.	1e
.	2c#i	.	.	.
=35	=35	=35	=35	=35
1BB-y	0d	1.F	2r	0d
.	.	.	2D	.
2BB-y	.	.	2D	.
2BB-y	.	2G	2D	.
=36	=36	=36	=36	=36
2C	0r	1A	2E	0r
1D	.	.	1F	.
.	.	2B-y	.	.
2C	.	[2A	[2E	.
=37	=37	=37	=37	=37
2BB-y	1B-y	4A]	4E]	1r
.	.	4G	4D	.
4AA	.	1G	1D	.
4GG	.	.	.	.
1AA	1c	.	.	1a
.	.	2F#i	2C	.
=38	=38	=38	=38	=38
1GG	2.B-y	1G	1D	1b-y
.	4A	.	.	.
1GG	1G	1D	1d	1b-y
=39	=39	=39	=39	=39
2.D	2F	0r	0d	2.a
.	1A	.	.	.
4E	.	.	.	4g
2F	.	.	.	2a
[2G	2G	.	.	[2b-y
=40	=40	=40	=40	=40
2G]	1A	0r	1d	4b-]
.	.	.	.	4a
2F#i	.	.	.	1a
1G	1B-y	.	1d	.
.	.	.	.	2g
=41	=41	=41	=41	=41
0D	2.A	1r	0d	1a
.	4G	.	.	.
.	2.F	1A	.	2r
.	.	.	.	2d
.	8EL	.	.	.
.	8DJ	.	.	.
=42	=42	=42	=42	=42
0r	1D	1.d	0r	1.f
.	1A	.	.	.
.	.	2c	.	2e
=43	=43	=43	=43	=43
2r	0r	2d	1D	2f
2GG	.	2B-y	.	2g
[1D	.	1A	[1F	[1a
=44	=44	=44	=44	=44
2D]	0r	0r	2F]	1a]
2C	.	.	2E	.
2D	.	.	2F	1r
2BB-y	.	.	2G	.
=45	=45	=45	=45	=45
1AA	2r	1c	1A	1r
.	2A	.	.	.
1r	[1B-y	[1d	1r	2r
.	.	.	.	2d
=46	=46	=46	=46	=46
0r	2B-]	2d]	0r	1.f
.	2A	2c	.	.
.	2B-y	2d	.	.
.	2G	2B-y	.	2e
=47	=47	=47	=47	=47
1D	1F	1A	1r	2.f
.	.	.	.	4g
[1F	1r	2r	1A	2a
.	.	2A	.	[2a
=48	=48	=48	=48	=48
2F]	0r	2F	1.c	2a]
2E	.	2G	.	2g
2F	.	2A	.	1f
2D	.	2F	2B-y	.
=49	=49	=49	=49	=49
1C	2r	2G	2c	1e
.	2A	2c	2A	.
1r	[1B-y	[1d	1G	2r
.	.	.	.	2d
=50	=50	=50	=50	=50
0r	2B-]	2d]	0r	1.f
.	2A	2c	.	.
.	2B-y	2d	.	.
.	2G	2B-y	.	2e
=51	=51	=51	=51	=51
1D	1F	1A	1r	2.f
.	.	.	.	4g
[1F	1r	2r	1A	2a
.	.	2A	.	[2a
=52	=52	=52	=52	=52
2F]	0r	2F	1.c	2a]
2E	.	2G	.	2g
2F	.	2A	.	1f
2D	.	2F	2B-y	.
=53	=53	=53	=53	=53
0C	1r	2G	2c	1e
.	.	1c	2A	.
.	2r	.	1G	2r
.	2G	2c	.	2e
=54	=54	=54	=54	=54
0F	4A	2.c	0r	4f
.	4G	.	.	4e
.	4A	.	.	4f
.	4B-y	4B-y	.	4g
.	2.c	1A	.	4a
.	.	.	.	4b-y
.	.	.	.	[2cc
.	4d	.	.	.
=55	=55	=55	=55	=55
1C	1e	2G	2r	2cc]
.	.	2c	2.G	4b-y
.	.	.	.	4a
2r	1d	2B-y	.	2.g
.	.	.	4A	.
(2G	.	2G	2B-y	.
.	.	.	.	4a
=56	=56	=56	=56	=56
2G)	1r	[0d	2G	2b-y
2F	.	.	2A	2a
1G	2r	.	2B-y	2g
.	[2G	.	2G	[2b-y
=57	=57	=57	=57	=57
1D	2G]	0d_	1A	2b-]
.	2F	.	.	1a
1r	1G	.	1B-y	.
.	.	.	.	2g
=58	=58	=58	=58	=58
1r	2.D	0d]	0A	[0a
.	4C	.	.	.
2r	4D	.	.	.
.	4E	.	.	.
[2D	[2F	.	.	.
=59	=59	=59	=59	=59
2D]	2F]	1r	1r	0a]
2C	2E	.	.	.
1D	1F	2r	2r	.
.	.	(2d	[2A	.
=60	=60	=60	=60	=60
1AA	1E	2d)	2A]	1r
.	.	2c	2A	.
1r	1r	1d	2G	2r
.	.	.	[2F	[2a
=61	=61	=61	=61	=61
0r	1r	1A	2F]	2a]
.	.	.	4E	2a
.	.	.	4D	.
.	2r	1r	2E	2g
.	[2d	.	2D	[2f
=62	=62	=62	=62	=62
0r	2d]	0r	1B-y	2f]
.	2d	.	.	4e
.	.	.	.	4d
.	2c	.	2A	2e
.	[2B-y	.	[2G	2e
=63	=63	=63	=63	=63
0r	2B-]	2r	2G]	2d
.	4A	1d	4F	2.g
.	4G	.	4E	.
.	2A	.	1D	.
.	.	.	.	4f#i
.	2A	2d	.	4f#i
.	.	.	.	8eL
.	.	.	.	8f#iJ
=64	=64	=64	=64	=64
1r	1G	2c	1E-X	1g
.	.	1B-y	.	.
2r	[1d	.	1D	1r
[2D	.	4A	.	.
.	.	4G	.	.
=65	=65	=65	=65	=65
2D]	1d]	2.F	2r	0r
2D	.	.	2D	.
.	.	4G	.	.
2C	1r	2A	2E	.
[2BB-y	.	[2D	2F	.
=66	=66	=66	=66	=66
2BB-]	2r	2D]	1G	1r
4AA	2d	2.G	.	.
4GG	.	.	.	.
2AA	2c	.	1r	2r
.	.	4F#i	.	.
2AA	2A	4F#i	.	2c
.	.	4E	.	.
=67	=67	=67	=67	=67
1GG	2B-y	1G	1r	2d
.	2G	.	.	2e
1r	1B-y	1r	2r	2f
.	.	.	2G	2d
=68	=68	=68	=68	=68
0r	2A	2r	2F	1f
.	1d	2F	2D	.
.	.	2G	2G	1e
.	2c#i	2A	2C	.
=69	=69	=69	=69	=69
1r	1d	2B-y	4G	1d
.	.	.	4A	.
.	.	2G	4B-y	.
.	.	.	4c	.
2r	1r	2B-y	2d	1r
2FF	.	2A	2c	.
=70	=70	=70	=70	=70
2GG	1r	2G	2B-y	0r
2AA	.	4F	4A	.
.	.	4E	4G	.
2BB-y	2r	2D	2F	.
2GG	2d	[2B-y	2G	.
=71	=71	=71	=71	=71
1BB-y	1d	4B-]	1D	1r
.	.	4A	.	.
.	.	1G	.	.
1AA	2c	.	1r	1a
.	2A	2F#i	.	.
=72	=72	=72	=72	=72
1GG	1d	1G	2r	0b-y
.	.	.	2D	.
2r	1B-y	2r	1G	.
2GG	.	2d	.	.
=73	=73	=73	=73	=73
1D	1r	1d	1F	1a
1AA	1A	1c	2r	2r
.	.	.	2E	2a
=74	=74	=74	=74	=74
2r	0d	2r	1G	1b-y
2GG	.	2d	.	.
1D	.	1f	1F	[1a
=75	=75	=75	=75	=75
0AA	1.c	1.e	2r	1a]
.	.	.	2C	.
.	.	.	2.C	2r
.	2c	2e	.	[2a
.	.	.	4D	.
=76	=76	=76	=76	=76
1C	1c	1e	4E	2a]
.	.	.	4F	.
.	.	.	4G	2g
.	.	.	4E	.
2D	2.A	2d	4F	2f
.	.	.	4G	.
2AA	.	4c	[2A	[2e
.	4G	4B-y	.	.
=77	=77	=77	=77	=77
2D	2F	2A	2A]	4e]
.	.	.	.	4d
2BB-y	2D	2B-y	2G	1d
1AA	1E	4c	[1A	.
.	.	4B-y	.	.
.	.	4A	.	2c#i
.	.	4G	.	.
=78	=78	=78	=78	=78
1r	0D	0F	0A]	[0d
[1D	.	.	.	.
=79	=79	=79	=79	=79
2D]	1r	2r	2r	0d]
2D	.	2F	2A	.
1D	[1d	2F	2A	.
.	.	2F	2A	.
=80	=80	=80	=80	=80
1GG	2d]	1G	1B-y	1r
.	2d	.	.	.
[1D	[1d	1F	[1A	[1f
=81	=81	=81	=81	=81
1D]	1d]	2D	1A]	2f]
.	.	1F	.	2f
2r	2.c	.	1r	1f
2F	.	4E	.	.
.	4d	4D	.	.
=82	=82	=82	=82	=82
2E	1e	1C	1c	1g
2C	.	.	.	.
2.D	1d	1r	2A	1f
.	.	.	2F	.
4E	.	.	.	.
=83	=83	=83	=83	=83
1F	1c	1r	2.A	2r
.	.	.	.	2f
.	.	.	4B-y	.
1r	1r	2r	1c	2e
.	.	2A	.	2c
=84	=84	=84	=84	=84
0D	0r	2A	2.F	4d
.	.	.	.	4c
.	.	2A	.	4d
.	.	.	4G	4e
.	.	2.F	2A	1f
.	.	.	2B-y	.
.	.	4G	.	.
=85	=85	=85	=85	=85
2C	0r	2A	2c	2e
2BB-y	.	2B-y	1d	2d
2E-i	.	2.G	.	[1g
2E-i	.	.	2c	.
.	.	4A	.	.
=86	=86	=86	=86	=86
[0D	0r	1B-y	[0d	2g]
.	.	.	.	4f
.	.	.	.	4e
.	.	1A	.	1f
=87	=87	=87	=87	=87
0D]	2r	2r	0d]	2r
.	2A	2F	.	2f
.	2A	2F	.	2f
.	2A	2D	.	2f
=88	=88	=88	=88	=88
0r	2B-y	2G	0r	2g
.	2c	2F	.	1a
.	2.B-y	2.G	.	.
.	.	.	.	2g
.	8AL	8FL	.	.
.	8GJ	8EJ	.	.
=89	=89	=89	=89	=89
0r	2A	2D	0r	2f
.	1d	2D	.	4e
.	.	.	.	4d
.	.	1A	.	1e
.	2c#i	.	.	.
=90	=90	=90	=90	=90
1BB-y	0d	1.F	2r	0d
.	.	.	2D	.
2BB-y	.	.	2D	.
2BB-y	.	2G	2D	.
=91	=91	=91	=91	=91
2C	0r	1A	2E	0r
1D	.	.	1F	.
.	.	2B-y	.	.
2C	.	[2A	[2E	.
=92	=92	=92	=92	=92
2BB-y	1B-y	4A]	4E]	1r
.	.	4G	4D	.
4AA	.	1G	1D	.
4GG	.	.	.	.
1AA	1c	.	.	1a
.	.	2F#i	2C	.
=93	=93	=93	=93	=93
1GG	2.B-y	1G	1D	1b-y
.	4A	.	.	.
1GG	1G	1D	1d	1b-y
=94	=94	=94	=94	=94
2.D	2F	0r	0d	2.a
.	1A	.	.	.
4E	.	.	.	4g
2F	.	.	.	2a
[2G	2G	.	.	[2b-y
=95	=95	=95	=95	=95
2G]	1A	0r	1d	4b-]
.	.	.	.	4a
2F#i	.	.	.	1a
1G	1B-y	.	1d	.
.	.	.	.	2g
=96	=96	=96	=96	=96
0D	2.A	1r	0d	1a
.	4G	.	.	.
.	2.F	1A	.	2r
.	.	.	.	2d
.	8EL	.	.	.
.	8DJ	.	.	.
=97	=97	=97	=97	=97
0r	1D	1.d	0r	1.f
.	1A	.	.	.
.	.	2c	.	2e
=98	=98	=98	=98	=98
2r	0r	2d	1D	2f
2GG	.	2B-y	.	2g
[1D	.	1A	[1F	[1a
=99	=99	=99	=99	=99
2D]	0r	0r	2F]	1a]
2C	.	.	2E	.
2D	.	.	2F	1r
2BB-y	.	.	2G	.
=100	=100	=100	=100	=100
1AA	2r	1c	1A	1r
.	2A	.	.	.
1r	[1B-y	[1d	1r	2r
.	.	.	.	2d
=101	=101	=101	=101	=101
0r	2B-]	2d]	0r	1.f
.	2A	2c	.	.
.	2B-y	2d	.	.
.	2G	2B-y	.	2e
=102	=102	=102	=102	=102
1D	1F	1A	1r	2.f
.	.	.	.	4g
[1F	1r	2r	1A	2a
.	.	2A	.	[2a
=103	=103	=103	=103	=103
2F]	0r	2F	1.c	2a]
2E	.	2G	.	2g
2F	.	2A	.	1f
2D	.	2F	2B-y	.
=104	=104	=104	=104	=104
1C	2r	2G	2c	1e
.	2A	2c	2A	.
1r	[1B-y	[1d	1G	2r
.	.	.	.	2d
=105	=105	=105	=105	=105
0r	2B-]	2d]	0r	1.f
.	2A	2c	.	.
.	2B-y	2d	.	.
.	2G	2B-y	.	2e
=106	=106	=106	=106	=106
1D	1F	1A	1r	2.f
.	.	.	.	4g
[1F	1r	2r	1A	2a
.	.	2A	.	[2a
=107	=107	=107	=107	=107
2F]	0r	2F	1.c	2a]
2E	.	2G	.	2g
2F	.	2A	.	1f
2D	.	2F	2B-y	.
=108	=108	=108	=108	=108
0C	1r	2G	2c	1e
.	.	1c	2A	.
.	2r	.	1G	2r
.	2G	2c	.	2e
=109	=109	=109	=109	=109
0F	4A	2.c	0r	4f
.	4G	.	.	4e
.	4A	.	.	4f
.	4B-y	4B-y	.	4g
.	2.c	1A	.	4a
.	.	.	.	4b-y
.	.	.	.	[2cc
.	4d	.	.	.
=110	=110	=110	=110	=110
1C	1e	2G	2r	2cc]
.	.	2c	2.G	4b-y
.	.	.	.	4a
2r	1d	2B-y	.	2.g
.	.	.	4A	.
(2G	.	2G	2B-y	.
.	.	.	.	4a
=111	=111	=111	=111	=111
2G)	1r	[0d	2G	2b-y
2F	.	.	2A	2a
1G	2r	.	2B-y	2g
.	[2G	.	2G	[2b-y
=112	=112	=112	=112	=112
1D	2G]	1d]	1A	2b-]
.	2F	.	.	1a
1r	1G	2r	1B-y	.
.	.	[2d	.	2g
=113	=113	=113	=113	=113
1r	2.D	4d]	[0Al	[0al
.	.	4c	.	.
.	.	4d	.	.
.	4C	4e	.	.
2r	4D	2f	.	.
.	4E	.	.	.
[2D	2F	2d	.	.
=114	=114	=114	=114	=114
2D]	2D	2f	0A_	0a_
2C	2E	2g	.	.
1D	1F	1d	.	.
=115	=115	=115	=115	=115
00AAl	00El	00cl	00A]	00a]
==	==	==	==	==
*-	*-	*-	*-	*-
!!!system-decoration: [*]
!!!RDF**kern: i = editorial accidental
!!!RDF**kern: l = terminal long
!!!ENC: Benjamin Ory
!!!END: 2021/2/2
!!!EED: Benjamin Ory
!!!EEV: 2021/04/29
!!!YEC: Copyright 2021 Benjamin Ory, All Rights Reserved
!!!ONB: Translated from MusicXML on 2021/04/29
